**kern
*MM60
*k[]
*M4/4
=1
1r
=2
1r
=3
1r
=4
1r
=5
1r
=6
8r
8dd
8cc#
8dd
4a
[4gg
=7
8gg]
16ff
16ee
8ff
16ee
16dd
4.ee
[8ee
=8
8ee]
16dd
16cc
8dd
16ee
16ff
8ee
16dd
16cc
16b
16cc
16dd
16ee
=9
8cc
16dd
16ee
8dd
8cc
16b
16cc
16dd
16ee
4ff
=10
4.ee
8ee
16dd
16ee
16cc
16dd
16b
16ee
16dd
16ee
=11
[2cc
16cc]
16ee
16dd
16cc
16dd
16cc
16b
16a
=12
[2b
16b]
16dd
16cc
16b
16cc
16b
16a
16g
=13
16a
16g
16f
16e
16d
16a
16b-
16a
16g
16a
16g
16f
8e
16f
16g
=14
16f
16a
16dd
16ff
8ee
[8dd
8dd]
16cc#
16b
16cc#
16a
16cc#
16ee
=15
4.aa
8aa
16gg
16aa
16ff
16gg
16ee
16aa
16gg
16aa
=16
16ff
16ee
16dd
16cc
8b
8dd
16ee
16dd
16cc
16b
8a
8cc
=17
16dd
16cc
16b
16a
16g#
16b
16a
16g#
8a
8b
8cc 8e
8b 8d
=18
16a
16b
16cc
16dd
16ee
16dd
16cc
16dd
8b
8cc
16g#
16ee
16ff#
16gg#
=19
8aa
8ee
2aa
4gg#
=20
8aa
16aa
16bb
16aa
16gg
16ff
16ee
8ff
8ff#
8gg
8aa
=21
8bb-
8gg
16gg
16aa
16gg
16ff
8ee
8ee
8ff
8gg
=22
8aa
8ff
16ff
16gg
16ff
16ee
16dd
16ee
16ff
16gg
16cc
16dd
16ee
16ff
=23
16b-
16cc
16a
16b-
16g
16cc
16b-
16cc
8a
8ff
8ee
8ff
=24
4cc
[4bb-
8bb-]
16aa
16gg
8aa
8ff
=25
4.gg
8gg
16ff
16gg
16aa
16bb-
16ccc
16bb-
16aa
16bb-
=26
4.gg
8gg
[4ccc
8ccc]
16bb-
16aa
=27
16bb-
16ccc
16aa
16bb-
16gg
16ccc
16bb-
16ccc
16aa
16gg
16ff
16ee
16ff
16gg
16aa
16bb-
=28
16gg
16ff
16ee
16dd
16ee
16ff
16gg
16aa
16ff
16ee
16dd
16cc
16dd
16ee
16ff
16gg
=29
8ee
16ff
16gg
8ff
8ee
4.dd
[8dd
=30
8dd]
16cc
16b
8cc
8ee
4.ff
8ff
=31
8ee
8dd
16cc
16b
16a
16cc
8b
16cc
16a
16b
16dd
16g
16b
=32
16cc
16ee
16dd
16a
[4b
16b]
16dd
16cc
16g
[4a
=33
16a]
16cc
16b
16f#
4g#
8a
16c
16d
8e
8c
=34
8B
8a
8g#
8a
4e
[4dd
=35
8dd]
16cc
16b
16cc
16b
16dd
16cc
4.b
8b
=36
16a
16b
16cc
16ee
16b
16ee
16a
16ee
16g#
16b
16f#
16b
16e
16g#
16b
16ee
=37
16gg#
16ee
16ff#
16gg#
16aa
16ee
16ff
16ee
16dd
16ee
16dd
16cc
16b
16cc
16dd
16b
=38
16cc
16a
16b
16cc#
16dd
16cc#
16ee
16dd
8ff
16gg
16aa
8ff
8ee
=39
8dd
16ff
16aa
16ee
16aa
16ff
16aa
8cc#
8dd
8cc#
8dd
=40
16a
16g
16f
16a
16e
16a
16f
16a
8c#
8d
8c#
8d
=41
8c#
16a
16b-
16a
16g
16f
16e
8f
8f#
8g
8a
=42
8b-
16g
16a
16g
16a
16g
16f
8e
8e
8f
8g
=43
8a
16a
16b-
8cc
8a
8g
8ff
8ee
8ff
=44
16cc
16b-
16a
16cc
16g
16cc
16a
16cc
8e
8f
8e
8f
=45
8c
16cc
16dd
16cc
16b-
16a
16g
8a
8a
8b
8cc
=46
8dd
16dd
16ee-
8ff
8dd
8cc
8bb-
8aa
8bb-
=47
16ff
16ee-
16dd
16ff
16cc
16ff
16dd
16ff
8a
8b-
8a
8b-
=48
8f
16ff
16gg
16ff
16ee-
16dd
16cc
8dd
8ee-
8dd
8cc
=49
8b-
8dd
16ee
16ff
16dd
16ee
8cc#
[8dd
8dd]
8cc#
=50
8dd
16dd
16ee-
16dd
16cc
16b-
16a
8b-
8b
8cc
8dd
=51
8ee-
16cc
16dd
16cc
16b-
16a
16g
8a
8a
8b
8cc
=52
8dd
16b-
16cc
16b-
16a
16g
16f
8g
8g
8a
8b-
=53
8cc
8a
16a
16g
16f#
16e
8f#
8dd
16dd
16cc
16b-
16a
=54
8b-
8cc
8b-
8a
8g
8gg
8ff#
8gg
=55
16dd
16cc
16b-
16cc
16a
16dd
16b-
16dd
8a
16dd
16ee
16dd
16cc
16b-
16a
=56
8b-
8cc
8b-
8a
8g
16ee
16ff
8gg
16cc#
16dd
=57
8ee
16a
16b
8cc#
8dd
4.dd
8cc#
=58
8dd
16ff
16aa
16ee
16aa
16ff
16aa
8cc#
8dd
8ee
8ff
=59
8ee
8dd
16cc#
16a
16b
16cc#
4.dd
8aa
=60
16gg
16aa
16gg
16ff
16ee
16gg
16ff
16ee
16ff
16dd
16gg
16aa
16bb-
16aa
16gg
16ff
=61
16ee
16cc
16ee
16gg
16aa
16gg
16ff
16ee
16dd
16b-
16dd
16ff
16gg
16ff
16ee
16dd
=62
16cc#
16ee
16dd
16cc#
16aa
16gg
16ff
16ee
4ff
4ee
=63
1dd
==
*-
